X:14
T:Carolan's Draught
M:4/4
L:1/8
Q:1/2=80
C:Turlough O'Carolan
R:Other
D:Arty McGlynn, "McGlynn's Fancy"
D:Zan McLeod
K:G
D2| "G"GABc "D"defd| "C"g2fe "G"d2d2| "C"e2E2 "G"d2D2| "Am"c2Bc  "D"AB (3cBA|
"G"GABc "D"defd| "Em"gfed "A"^cbag| "D"gfed "A"A2^c2| "D"d6:||:
"D"fg|afga "G"bagf| "Em"(3efg fe "Am"edcB| "C"edef gfga| "G"bagf "C"efga |
"G"bBbB "D"aBaB| "Em"gBgB "Bm"fBfB| "C"edef gfe^d| e6f2|
"Em"gfed "Am"cBAG| "C"e2d2 "G"d2D2| "C"c2 (3BcB "Am"A2G2| "D"FGAF D2z2|
"C"EFGE "D"FGAF| "G"GABG "D"ABcA| "G"d2g2 "D"bagf| "G"g6:|!
